X:1
T:Theophany, 96.96 D
T:Theophany, 96.96 D
T:Oren R. Barrows, 1878
T:Public Domain Courtesy of the Cyber Hymnal™
C:Oren R. Barrows, 1878
Z:Public Domain
Z:Courtesy of the Cyber Hymnal™
%%score ( 1 2 ) ( 3 4 )
L:1/8
Q:1/4=100
M:4/4
K:A
V:1 treble 
V:2 treble 
V:3 bass 
V:4 bass 
V:1
 [CE]2 [DF]>[CE] [CE] [CA]2 [EA] | [EB]2 [Ee]2 [Ec]4 | [FB]2 [FA]>[DF] E2 [CA]2 | [EB]6 z2 | %4
 [CE]2 [DF]>[CE] [CE] [CA]2 [EA] | [EB]2 [Ee]2 [Ec]4 | [DB]2 [CA]>[DB] [Ec]2 [DB]2 | [CA]6 z2 | %8
 [Fd]2 [Fd]>[Fd] [Fd]2 d2 | c8 | [Ae]2 [Ec]>[Ed] [Ae]2 [Ac]2 | B8 | %12
 [CE]2 [DF]>[CE] [CE] [CA]2 [EA] | [EB]2 [Ee]2 [Ec]4 | [DB]2 [CA]>[DB] [Ec]2 [DB]2 | [CA]6 z2 |] %16
V:2
 x8 | x8 | x4 E2 x2 | x8 | x8 | x8 | x8 | x8 | x6 FF | E2 C2 E4 | x8 | (G2 G>GGFED) | x8 | x8 | %14
 x8 | x8 |] %16
V:3
 [A,,A,]2 [A,,A,]>[A,,A,] [A,,A,] [A,,A,]2 [C,A,] | [E,G,]2 [E,G,]2 A,4 | %2
 [D,D]2 [D,A,]>[D,A,] [C,A,]2 [A,,A,]2 | [E,G,]6 z2 | %4
 [A,,A,]2 [A,,A,]>[A,,A,] [A,,A,] [A,,A,]2 [C,A,] | [E,G,]2 [E,G,]2 A,4 | %6
 [E,G,]2 E,>E, (E,A,) [E,G,]2 | [A,,A,]6 z2 | [D,A,]2 [D,A,]>[D,A,] A,2 [F,A,][G,A,] | %9
 A,2 [A,,E,]2 [A,,A,]4 | [A,C]2 A,>[A,B,] C2 C2 | (E2 E>EEDCB,) | %12
 [A,,A,]2 [A,,A,]>[A,,A,] [A,,A,] [A,,A,]2 [C,A,] | [E,G,]2 [E,G,]2 A,4 | %14
 [E,G,]2 E,>E, (E,A,) [E,G,]2 | [A,,A,]6 z2 |] %16
V:4
 x8 | x4 A,4 | x8 | x8 | x8 | x4 A,4 | x2 E,>E, E,2 x2 | x8 | x4 (D,E,) x2 | A,2 x6 | %10
 x2 A,3/2 (A,,B,,) (C,D,) x/ | E,8 | x8 | x4 A,4 | x2 E,>E, E,2 x2 | x8 |] %16

